src/Assets/icons/13-space/space-icon.svg

<svg viewBox="0 0 2000 2000" xmlns="http://www.w3.org/2000/svg" xml:space="preserve" style="fill-rule:evenodd;clip-rule:evenodd;stroke-linecap:round;stroke-linejoin:round;stroke-miterlimit:1.5">
    <path d="M1399 457.84c0-25.3-15.18-45.84-33.88-45.84H585.88c-18.699 0-33.88 20.54-33.88 45.84v1054.32c0 25.3 15.181 45.84 33.88 45.84h779.24c18.7 0 33.88-20.54 33.88-45.84V457.84Z" style="fill:#e6e6e6" transform="matrix(2.36128 0 0 1.7452 -1303.42 -719.023)"/>
    <path style="fill:#b9bec6" d="M-1024 1191.65h825.427v714.841H-1024z" transform="matrix(1.12299 -.64836 1.29672 .74866 -322.238 -121.233)"/>
    <path d="M-183.732 1185.22c0-3.97-2.828-6.42-7.42-6.42h-825.428c-4.59 0-10.25 2.45-14.84 6.42-4.59 3.98-7.42 8.88-7.42 12.86v714.84c0 3.97 2.83 6.42 7.42 6.42h825.426c4.592 0 10.25-2.45 14.842-6.42 4.592-3.98 7.42-8.88 7.42-12.85v-714.85Zm-29.682 19.28v689.14h-795.746V1204.5h795.746Z" style="fill:#172d4d" transform="matrix(1.12299 -.64836 1.29672 .74866 -322.238 -121.233)"/>
    <path style="fill:#e3e5e8" d="M-1024 1191.65h825.427v714.841H-1024z" transform="matrix(1.12299 .64836 0 1.21657 2149.94 -755.81)"/>
    <path d="M-183.732 1183.74c0-4.89-2.828-7.91-7.42-7.91h-825.428c-4.59 0-10.25 3.02-14.84 7.91-4.59 4.89-7.42 10.92-7.42 15.82v714.84c0 4.9 2.83 7.91 7.42 7.91h825.426c4.592 0 10.25-3.01 14.842-7.91 4.592-4.89 7.42-10.92 7.42-15.82v-714.84Zm-29.682 23.73v683.2h-795.746v-683.2h795.746Z" style="fill:#172d4d" transform="matrix(1.12299 .64836 0 1.21657 2149.94 -755.81)"/>
    <path style="fill:#8f97a3" d="M-1024 1191.65h825.427v714.841H-1024z" transform="matrix(1.12299 -.64836 0 1.21657 1222.99 -1548.47)"/>
    <path d="M-183.732 1199.56c0-4.9-2.828-10.93-7.42-15.82-4.592-4.89-10.25-7.91-14.842-7.91h-825.426c-4.59 0-7.42 3.02-7.42 7.91v714.84c0 4.9 2.83 10.93 7.42 15.82 4.59 4.9 10.25 7.91 14.84 7.91h825.428c4.592 0 7.42-3.01 7.42-7.91v-714.84Zm-29.682 7.91v683.2h-795.746v-683.2h795.746Z" style="fill:#172d4d" transform="matrix(1.12299 -.64836 0 1.21657 1222.99 -1548.47)"/>
    <path d="M1247.08 1216c137.65 0 249.41 127.89 249.41 285.41 0 157.53 38.79 285.41-249.41 285.41-272.18 0-249.419-127.88-249.419-285.41 0-157.52 111.759-285.41 249.419-285.41Z" style="fill:#45a0e5" transform="matrix(.76665 -.44263 0 1.0533 -256.46 121.835)"/>
    <path d="M777.081 814.835c-26.363-2.729-55.373 3.834-85.797 21.399C610.033 883.145 539.4 1000.18 508.43 1127.78c-26.55 81.03-32.645 161.46-17.302 266.4 1.039 7.1 6.911 74.41 31.941 106.32 111.62 86.09 157.992 67.31 173.475 64.38 26.908-5.07 61.378-19.01 105.258-44.35 92.145-53.2 142.072-105.15 169.293-158.9 40.315-79.62 30.255-164.06 30.255-266.55 0-84.27-21.902-148.671-56.096-186.699-4.798-7.399-11.73-15.054-21.347-22.201-111.813-83.091-118.212-73.703-118.212-73.703a23.476 23.476 0 0 0-23.717.142l-4.897 2.216Zm106.17 90.719c15.333 35.896 24.249 81.573 24.249 135.336 0 102.49 10.06 186.94-30.256 266.55-27.22 53.75-77.148 105.71-169.293 158.91-29.9 17.26-55.43 29.24-77.179 36.72 3.688 9.56 8.64 17.35 15.57 22.82 10.194 8.04 24.479 9.93 44.023 6.24 24.276-4.58 55.183-17.61 94.77-40.46 84.614-48.85 131.226-95.74 156.222-145.1 38.008-75.06 26.66-154.87 26.66-251.49 0-54.94-9.646-100.583-26.835-134.164-14.464-28.258-34.148-47.655-57.931-55.362Zm-37.914-2.601a163.34 163.34 0 0 1 1.994 3.778c17.189 33.581 26.835 79.225 26.835 134.159 0 96.62 11.348 176.44-26.66 251.49-24.995 49.36-71.608 96.25-156.222 145.1-26.456 15.28-49.035 26.16-68.347 33.07-6.29-41.89-4.018-96.99-4.018-154.67 0-159.85 81.212-337.894 182.882-396.593h.001c15.09-8.713 29.674-14.136 43.535-16.334Z" style="fill:#172d4d"/>
    <path d="M588.35 712.27c4.706 16.875 16.514 47.158 35.469 61.763 88.61 68.277 103.177 66.436 123.443 69.111 30.088 3.972 63.396 2.225 95.534-26.622 55.097-49.453 83.412-149.21 62.918-222.708-9.109-32.67-26.106-55.338-46.535-68.093-.883-.552-87.039-55.856-112.376-62.781-29.276-8-63.397-2.225-95.535 26.622-55.096 49.454-83.412 149.211-62.918 222.708Zm227.906-152.019c10.739 70.577-17.217 157.124-67.31 202.087-4.622 4.148-9.291 7.844-13.983 11.102 6.646 12.784 15.587 21.485 26.529 24.965 15.369 4.889 32.867-1.491 49.945-16.821 43.305-38.87 65.163-117.391 49.055-175.16-6.555-23.506-18.211-39.516-34.069-44.56a34.457 34.457 0 0 0-10.167-1.613Zm-44.607 23.02c2.891 49.953-16.253 106.457-49.234 139.543-2.89-49.954 16.254-106.457 49.234-139.543Z" style="fill:#172d4d" transform="matrix(1 0 0 1 0 51)"/>
    <path d="M1247.08 1216c137.65 0 249.41 127.89 249.41 285.41 0 157.53 38.79 285.41-249.41 285.41-272.18 0-249.419-127.88-249.419-285.41 0-157.52 111.759-285.41 249.419-285.41Z" style="fill:#45a0e5" transform="matrix(.76665 -.44263 0 1.0533 -162.609 176.02)"/>
    <path d="M1247.08 1216c137.65 0 249.41 127.89 249.41 285.41 0 157.53 38.79 285.41-249.41 285.41-272.18 0-249.419-127.88-249.419-285.41 0-157.52 111.759-285.41 249.419-285.41Z" style="fill:#59ace8" transform="matrix(.6621 -.38226 0 .90965 -5.956 322.881)"/>
    <path d="M1247.08 1216c137.65 0 249.41 127.89 249.41 285.41 0 157.53 38.79 285.41-249.41 285.41-272.18 0-249.419-127.88-249.419-285.41 0-157.52 111.759-285.41 249.419-285.41Z" style="fill:#92caf0" transform="matrix(.40962 -.2365 0 .56278 334.992 657.804)"/>
    <path d="M1247.08 1216c137.65 0 249.41 127.89 249.41 285.41 0 157.53 38.79 285.41-249.41 285.41-272.18 0-249.419-127.88-249.419-285.41 0-157.52 111.759-285.41 249.419-285.41Z" style="fill:#b8ddf5" transform="matrix(.24638 -.14225 0 .3385 546.333 894.533)"/>
    <ellipse cx="1110.03" cy="1218.51" rx="65.452" ry="94.16" style="fill:#45a0e5" transform="matrix(1.3324 -1.19594 .35216 1.26295 -1116.098 521.483)"/>
    <path style="fill:#8f97a3;stroke:#172d4d;stroke-width:25.24px" d="M1360.24-278.963h640.859v423.294H1360.24z" transform="rotate(30) skewX(30)"/>
    <circle cx="289.99" cy="272" r="96" style="fill:#45a0e5" transform="matrix(1.47831 .8535 0 1.70701 1026.801 46.708)"/>
    <path d="m990.236 816 75.714 151.426H914.523L990.236 816Z" style="fill:#172d4f" transform="matrix(0 1.28672 -.92975 -.5368 2302.265 -23.636)"/>
</svg>

<?xml version="1.0" encoding="UTF-8" standalone="no"?>
<!DOCTYPE svg PUBLIC "-//W3C//DTD SVG 1.1//EN" "http://www.w3.org/Graphics/SVG/1.1/DTD/svg11.dtd">
<svg width="100%" height="100%" viewBox="0 0 2000 2000" version="1.1" xmlns="http://www.w3.org/2000/svg" xmlns:xlink="http://www.w3.org/1999/xlink" xml:space="preserve" xmlns:serif="http://www.serif.com/" style="fill-rule:evenodd;clip-rule:evenodd;stroke-linecap:round;stroke-linejoin:round;stroke-miterlimit:1.5;">
    <g transform="matrix(2.36128,0,0,1.7452,-1303.42,-719.023)">
        <path d="M1399,457.84C1399,432.54 1383.82,412 1365.12,412L585.88,412C567.181,412 552,432.54 552,457.84L552,1512.16C552,1537.46 567.181,1558 585.88,1558L1365.12,1558C1383.82,1558 1399,1537.46 1399,1512.16L1399,457.84Z" style="fill:rgb(230,230,230);"/>
    </g>
    <g transform="matrix(1.12299,-0.648358,1.29672,0.74866,-322.238,-121.233)">
        <rect x="-1024" y="1191.65" width="825.427" height="714.841" style="fill:rgb(185,190,198);"/>
        <path d="M-183.732,1185.22C-183.732,1181.25 -186.56,1178.8 -191.152,1178.8L-1016.58,1178.8C-1021.17,1178.8 -1026.83,1181.25 -1031.42,1185.22C-1036.01,1189.2 -1038.84,1194.1 -1038.84,1198.08L-1038.84,1912.92C-1038.84,1916.89 -1036.01,1919.34 -1031.42,1919.34L-205.994,1919.34C-201.402,1919.34 -195.744,1916.89 -191.152,1912.92C-186.56,1908.94 -183.732,1904.04 -183.732,1900.07L-183.732,1185.22ZM-213.414,1204.5L-213.414,1893.64C-213.414,1893.64 -1009.16,1893.64 -1009.16,1893.64C-1009.16,1893.64 -1009.16,1204.5 -1009.16,1204.5C-1009.16,1204.5 -213.414,1204.5 -213.414,1204.5L-213.414,1204.5Z" style="fill:rgb(23,45,77);"/>
    </g>
    <g transform="matrix(1.12299,0.648358,-1.07082e-16,1.21657,2149.94,-755.81)">
        <rect x="-1024" y="1191.65" width="825.427" height="714.841" style="fill:rgb(227,229,232);"/>
        <path d="M-183.732,1183.74C-183.732,1178.85 -186.56,1175.83 -191.152,1175.83L-1016.58,1175.83C-1021.17,1175.83 -1026.83,1178.85 -1031.42,1183.74C-1036.01,1188.63 -1038.84,1194.66 -1038.84,1199.56L-1038.84,1914.4C-1038.84,1919.3 -1036.01,1922.31 -1031.42,1922.31L-205.994,1922.31C-201.402,1922.31 -195.744,1919.3 -191.152,1914.4C-186.56,1909.51 -183.732,1903.48 -183.732,1898.58L-183.732,1183.74ZM-213.414,1207.47L-213.414,1890.67C-213.414,1890.67 -928.275,1890.67 -1009.16,1890.67C-1009.16,1890.67 -1009.16,1207.47 -1009.16,1207.47C-1009.16,1207.47 -213.414,1207.47 -213.414,1207.47L-213.414,1207.47Z" style="fill:rgb(23,45,77);"/>
    </g>
    <g transform="matrix(1.12299,-0.648358,6.99808e-17,1.21657,1222.99,-1548.47)">
        <rect x="-1024" y="1191.65" width="825.427" height="714.841" style="fill:rgb(143,151,163);"/>
        <path d="M-183.732,1199.56C-183.732,1194.66 -186.56,1188.63 -191.152,1183.74C-195.744,1178.85 -201.402,1175.83 -205.994,1175.83L-1031.42,1175.83C-1036.01,1175.83 -1038.84,1178.85 -1038.84,1183.74L-1038.84,1898.58C-1038.84,1903.48 -1036.01,1909.51 -1031.42,1914.4C-1026.83,1919.3 -1021.17,1922.31 -1016.58,1922.31L-191.152,1922.31C-186.56,1922.31 -183.732,1919.3 -183.732,1914.4L-183.732,1199.56ZM-213.414,1207.47L-213.414,1890.67C-213.414,1890.67 -1009.16,1890.67 -1009.16,1890.67C-1009.16,1890.67 -1009.16,1284.03 -1009.16,1207.47C-1009.16,1207.47 -213.414,1207.47 -213.414,1207.47L-213.414,1207.47Z" style="fill:rgb(23,45,77);"/>
    </g>
    <g id="Avatar" transform="matrix(1.40843,0,0,1.40843,-562.362,-617.05)">
        <g transform="matrix(0.544332,-0.31427,3.59526e-17,0.747858,217.194,524.616)">
            <path d="M1247.08,1216C1384.73,1216 1496.49,1343.89 1496.49,1501.41C1496.49,1658.94 1535.28,1786.82 1247.08,1786.82C974.9,1786.82 997.661,1658.94 997.661,1501.41C997.661,1343.89 1109.42,1216 1247.08,1216Z" style="fill:rgb(69,160,229);"/>
        </g>
        <g transform="matrix(0.71001,0,0,0.71001,399.283,438.112)">
            <path d="M777.081,814.835C750.718,812.106 721.708,818.669 691.284,836.234C610.033,883.145 539.4,1000.18 508.43,1127.78C481.88,1208.81 475.785,1289.24 491.128,1394.18C492.167,1401.28 498.039,1468.59 523.069,1500.5C634.689,1586.59 681.061,1567.81 696.544,1564.88C723.452,1559.81 757.922,1545.87 801.802,1520.53C893.947,1467.33 943.874,1415.38 971.095,1361.63C1011.41,1282.01 1001.35,1197.57 1001.35,1095.08C1001.35,1010.81 979.448,946.409 945.254,908.381C940.456,900.982 933.524,893.327 923.907,886.18C812.094,803.089 805.695,812.477 805.695,812.477C798.345,808.234 789.276,808.288 781.978,812.619L777.081,814.835ZM883.251,905.554C898.584,941.45 907.5,987.127 907.5,1040.89C907.5,1143.38 917.56,1227.83 877.244,1307.44C850.024,1361.19 800.096,1413.15 707.951,1466.35C678.051,1483.61 652.521,1495.59 630.772,1503.07C634.46,1512.63 639.412,1520.42 646.342,1525.89C656.536,1533.93 670.821,1535.82 690.365,1532.13C714.641,1527.55 745.548,1514.52 785.135,1491.67C869.749,1442.82 916.361,1395.93 941.357,1346.57C979.365,1271.51 968.017,1191.7 968.017,1095.08C968.017,1040.14 958.371,994.497 941.182,960.916C926.718,932.658 907.034,913.261 883.251,905.554ZM845.337,902.953C846.012,904.192 846.677,905.452 847.331,906.731C864.52,940.312 874.166,985.956 874.166,1040.89C874.166,1137.51 885.514,1217.33 847.506,1292.38C822.511,1341.74 775.898,1388.63 691.284,1437.48C664.828,1452.76 642.249,1463.64 622.937,1470.55C616.647,1428.66 618.919,1373.56 618.919,1315.88C618.919,1156.03 700.131,977.986 801.801,919.287L801.802,919.287C816.892,910.574 831.476,905.151 845.337,902.953Z" style="fill:rgb(23,45,77);"/>
        </g>
        <g transform="matrix(0.71001,0,0,0.71001,399.283,474.322)">
            <path d="M588.35,712.27C593.056,729.145 604.864,759.428 623.819,774.033C712.429,842.31 726.996,840.469 747.262,843.144C777.35,847.116 810.658,845.369 842.796,816.522C897.893,767.069 926.208,667.312 905.714,593.814C896.605,561.144 879.608,538.476 859.179,525.721C858.296,525.169 772.14,469.865 746.803,462.94C717.527,454.94 683.406,460.715 651.268,489.562L651.268,489.562C596.172,539.016 567.856,638.773 588.35,712.27ZM816.256,560.251C826.995,630.828 799.039,717.375 748.946,762.338C744.324,766.486 739.655,770.182 734.963,773.44C741.609,786.224 750.55,794.925 761.492,798.405C776.861,803.294 794.359,796.914 811.437,781.584C854.742,742.714 876.6,664.193 860.492,606.424C853.937,582.918 842.281,566.908 826.423,561.864C823.123,560.814 819.725,560.284 816.256,560.251ZM771.649,583.271C774.54,633.224 755.396,689.728 722.415,722.814C719.525,672.86 738.669,616.357 771.649,583.271Z" style="fill:rgb(23,45,77);"/>
        </g>
        <g transform="matrix(0.544332,-0.31427,3.59526e-17,0.747858,283.829,563.088)">
            <path d="M1247.08,1216C1384.73,1216 1496.49,1343.89 1496.49,1501.41C1496.49,1658.94 1535.28,1786.82 1247.08,1786.82C974.9,1786.82 997.661,1658.94 997.661,1501.41C997.661,1343.89 1109.42,1216 1247.08,1216Z" style="fill:rgb(69,160,229);"/>
        </g>
        <g transform="matrix(0.470095,-0.271409,3.10492e-17,0.645863,395.054,667.361)">
            <path d="M1247.08,1216C1384.73,1216 1496.49,1343.89 1496.49,1501.41C1496.49,1658.94 1535.28,1786.82 1247.08,1786.82C974.9,1786.82 997.661,1658.94 997.661,1501.41C997.661,1343.89 1109.42,1216 1247.08,1216Z" style="fill:rgb(89,172,232);"/>
        </g>
        <g transform="matrix(0.290838,-0.167915,1.92095e-17,0.399582,637.131,905.16)">
            <path d="M1247.08,1216C1384.73,1216 1496.49,1343.89 1496.49,1501.41C1496.49,1658.94 1535.28,1786.82 1247.08,1786.82C974.9,1786.82 997.661,1658.94 997.661,1501.41C997.661,1343.89 1109.42,1216 1247.08,1216Z" style="fill:rgb(146,202,240);"/>
        </g>
        <g transform="matrix(0.17493,-0.100996,1.1554e-17,0.240337,787.185,1073.24)">
            <path d="M1247.08,1216C1384.73,1216 1496.49,1343.89 1496.49,1501.41C1496.49,1658.94 1535.28,1786.82 1247.08,1786.82C974.9,1786.82 997.661,1658.94 997.661,1501.41C997.661,1343.89 1109.42,1216 1247.08,1216Z" style="fill:rgb(184,221,245);"/>
        </g>
        <g transform="matrix(0.946018,-0.849128,0.250036,0.896707,-393.158,808.37)">
            <ellipse cx="1110.03" cy="1218.51" rx="65.452" ry="94.16" style="fill:rgb(69,160,229);"/>
        </g>
    </g>
    <g id="Fernseher_rechts">
        <g transform="matrix(0.866025,0.5,-5.55112e-17,1.1547,0,0)">
            <rect x="1360.24" y="-278.963" width="640.859" height="423.294" style="fill:rgb(143,151,163);stroke:rgb(23,45,77);stroke-width:25.24px;"/>
        </g>
        <g id="Videobutton" transform="matrix(1.11433,0.64336,-6.18579e-17,1.28672,391.991,-1005.28)">
            <g transform="matrix(1.32664,0,0,1.32664,569.679,532.734)">
                <circle cx="289.99" cy="272" r="96" style="fill:rgb(69,160,229);"/>
            </g>
            <g transform="matrix(6.12323e-17,1,-0.834359,5.10897e-17,1714.28,-94.2356)">
                <path d="M990.236,816L1065.95,967.426L914.523,967.426L990.236,816Z" style="fill:rgb(23,45,79);"/>
            </g>
        </g>
    </g>
</svg>
